// Deep Hypnotic Techno ~128 BPM — Club-Preset (nicht nur Kick+Clap)
setcpm(32)

stack(
  s("bd*4").gain(0.92),
  s("~ ~ cp ~").gain(0.58),
  s("hh*8").gain(0.26).speed(perlin.range(0.94, 1.06)),
  s("~ oh ~ oh").gain(0.32).speed(0.88),
  note("c2(5,8)").s("sine").gain(0.42).lpf(sine.range(90, 240).slow(16)).room(0.2),
  n("<0 3 7>*2").scale("A:minor").s("triangle").gain(0.14).delay(0.3).room(0.45)
)
